!!!!SEGMENT:14Okinotaisen_c.krn
!!!OTL:沖の大船
!!!OPR:Eiga Banso Kyokusyu,jidai-geki,zenpen
!!!YOY:1929
!!!ONB:Fune
**kern
*clefG2
*C:
*M2/4
=1
!LO:TX:a:B:t=Allegro moderato
8bL
8g
8f#
8eJ
=2
8f#L
8a
8b
8bJ
=3
8BL
8bJ
4b
=4
8bL
8aJ
4B
=5
8r
8cc#
4cc#
=6
8cc#L
8aJ
4b
=7
4ee
4cc#
=8
8r
16eeLL
16eeJJ
4ff#
=9
8r
8gg#XL
8ff#
8eeJ
=10
8cc#L
8bJ
8aL
8bJ
=11
8cc#L
8cc#
8b
8cc#J
=12
8g#XL
8f#J
4e
=13
4r
4e
=14
8r
8eL
8.f#
16eJk
=15
8f#L
8aJ
8bL
8f#J
=16
8r
8f#
4B
=17
4ee
4cc#
=18
8r
8a
4b
=19
8f#L
16eeL
16eeJJ
4ff#
=20
8r
8ee
[4cc#
=21
8cc#L]
8aJ
4b
=22
4ee
8cc#L
16cc#L
16cc#JJ
=23
8bL
8aJ
8bL
16cc#L
16cc#JJ
=24
8bL
8gJ
4f#
=25
4r
4c#
=26
4e
8.f#L
16eJk
=27
8f#L
8f#J
8aL
8bJ
=28
8cc#L
8c#J
4B
=29
4r
4cc#
=30
4ee
8cc#L
16cc#L
16cc#JJ
=31
8bL
8aJ
8bL
16cc#L
16cc#JJ
=32
8bL
8g
8f#
8eJ
=33
8f#L
8a
8b
8bJ
=34
8BL
8bJ
4b
=35
8bL
8a
8b
8aJ
=36
4B
8.bL
16aJk
=37
8bL
8cc#J
8eeL
8cc#J
=38
8eeL
8ff#J
8eeL
8cc#J
=39
4b
8r
8cc#
=40
4b
4f#
=41
2b
==
*-
!!!ENC: Yukiko Yoden
!!!END: 2023/06/11
